images/icons/blog.svg

<svg fill="none" height="24" viewBox="0 0 24 24" width="24" xmlns="http://www.w3.org/2000/svg" xmlns:xlink="http://www.w3.org/1999/xlink"><clipPath id="a"><path d="m0 0h24v24h-24z"/></clipPath><g clip-path="url(#a)"><path d="m8.07187 10.6313c-.68437-.136-1.32187.4171-1.32187 1.1156v2.3625c0 .4781.33281.8625.78281 1.0312.85313.3188 1.46719 1.1438 1.46719 2.1094 0 1.2422-1.00781 2.25-2.25 2.25s-2.25-1.0078-2.25-2.25v-11.62499c0-.62344-.50156-1.125-1.125-1.125h-2.25c-.623438 0-1.125.50156-1.125 1.125v11.62499c0 4.1953 3.84844 7.5094 8.20312 6.5953 2.54998-.5344 4.60778-2.5969 5.14218-5.1422.8156-3.8859-1.7344-7.3687-5.27343-8.0718zm1.72501-10.63129307c-.43125-.02343753-.79688.31875007-.79688.75000007v1.481253c0 .39843.30938.72656.70312.74531 6.06558.32812 10.94058 5.25 11.29218 11.32033.0234.3937.3516.7031.7453.7031h1.5047c.4313 0 .7734-.3656.75-.7969-.3984-7.64997-6.5484-13.799968-14.19842-14.20309307zm.01406 4.50000307c-.43594-.03282-.81094.31406-.81094.75468v1.50469c0 .39375.30469.71719.69375.74532 3.60005.29531 6.46875 3.1969 6.79215 6.8062.0375.3891.3563.6891.7454.6891h1.5093c.436 0 .7875-.375.7547-.8109-.3937-5.16097-4.5234-9.29066-9.68436-9.68909z" fill="#fff"/></g></svg>

<svg width="24" height="24" viewBox="0 0 24 24" fill="none" xmlns="http://www.w3.org/2000/svg">
<g clip-path="url(#clip0_1432_8558)">
<path d="M8.07187 10.6313C7.3875 10.4953 6.75 11.0484 6.75 11.7469V14.1094C6.75 14.5875 7.08281 14.9719 7.53281 15.1406C8.38594 15.4594 9 16.2844 9 17.25C9 18.4922 7.99219 19.5 6.75 19.5C5.50781 19.5 4.5 18.4922 4.5 17.25V5.62501C4.5 5.00157 3.99844 4.50001 3.375 4.50001H1.125C0.501562 4.50001 0 5.00157 0 5.62501V17.25C0 21.4453 3.84844 24.7594 8.20312 23.8453C10.7531 23.3109 12.8109 21.2484 13.3453 18.7031C14.1609 14.8172 11.6109 11.3344 8.07187 10.6313ZM9.79688 6.92832e-06C9.36563 -0.0234306 9 0.318757 9 0.750007V2.23126C9 2.62969 9.30938 2.95782 9.70312 2.97657C15.7687 3.30469 20.6437 8.22657 20.9953 14.2969C21.0187 14.6906 21.3469 15 21.7406 15H23.2453C23.6766 15 24.0187 14.6344 23.9953 14.2031C23.5969 6.55313 17.4469 0.403132 9.79688 6.92832e-06ZM9.81094 4.50001C9.375 4.46719 9 4.81407 9 5.25469V6.75938C9 7.15313 9.30469 7.47657 9.69375 7.5047C13.2938 7.80001 16.1625 10.7016 16.4859 14.3109C16.5234 14.7 16.8422 15 17.2313 15H18.7406C19.1766 15 19.5281 14.625 19.4953 14.1891C19.1016 9.02813 14.9719 4.89844 9.81094 4.50001Z" fill="white"/>
</g>
<defs>
<clipPath id="clip0_1432_8558">
<rect width="24" height="24" fill="white"/>
</clipPath>
</defs>
</svg>
